!!!!SEGMENT: pl-kk--kk-i-2--051-006_pekiel-bartlomiej--missa-brevis-agnus-dei.krn
!!!cenid: 16xx:1734
!!!COM: Pękiel, Bartłomiej
!!!COM-rismID: pe30105642
!!!CDT: <1633-~1670
!!!CNT: Polish
!!!OPR: Missa Brevis
!!!OTL: Agnus Dei
!!!OMV: 006
!!!PDT: 1661
!!!AIN: 1 alto 1 bass 1 soprn 1 tenor
!!!AGN: Sacred; Mass
!!!SMS-siglum: PL-Kk
!!!SMS-shelfmark: Kk.I.2
!!!SMS-shelfwork: 051-006 M
!!!NIFC-rismID: 300258069
!!!NIFC-islandoraID: pl-kk:750
!!!URL-pdf-islandora: https://repozytorium.nifc.pl/islandora/object/pl-kk%3A750/datastream/PDF/view#page=87
!!!URL-scan: https://polish.musicsources.pl/pl/lokalizacje/galeria/rekopisy/5828 @EN{Scan on Polish Music Sources Website} @PL{Skany w portalu Dziedzictwo Muzyki Polskiej w otwartym dostępie}
!!!ONB-nifc: Części mszy: Kyrie, Gloria, Credo, Sanctus, Benedictus, Agnus Dei; skany: C: 0091; A: 0195; T: 0293-0294; B: 0395
!!!SMS-variant:
!!!SMS-altvar:
!!!key: g:dor
**kern	**text	**kern	**text	**kern	**text	**kern	**text
*part4	*part4	*part3	*part3	*part2	*part2	*part1	*part1
*staff4	*staff4	*staff3	*staff3	*staff2	*staff2	*staff1	*staff1
*I"BASVS	*	*I"TENOR	*	*I"ALTVS	*	*I"DISCANTVS	*
*mI"Basso	*	*mI"Tenore II	*	*mI"Tenore I	*	*mI"Alto	*
*I'B	*	*I'T	*	*I'A	*	*I'S	*
*	*	*mI'T 2	*	*mI'T 1	*	*mI'A	*
*Ibass	*	*Itenor	*	*Ialto	*	*Isoprn	*
*ICvox	*	*ICvox	*	*ICvox	*	*ICvox	*
*clefF4	*	*clefC4	*	*clefC4	*	*clefC3	*
*	*	*mclefGv2	*	*mclefGv2	*	*mclefGv2	*
*k[b-]	*	*k[b-]	*	*k[b-]	*	*k[b-]	*
*g:dor	*	*g:dor	*	*g:dor	*	*g:dor	*
*M2/1	*	*M2/1	*	*M2/1	*	*M2/1	*
*met(C|)	*	*met(C|)	*	*met(C|)	*	*met(C|)	*
*mmet(c|)	*	*mmet(c|)	*	*mmet(c|)	*	*mmet(c|)	*
=1-	=1-	=1-	=1-	=1-	=1-	=1-	=1-
!LO:MO:mod=*null:null	!	!LO:MO:mod=*null:null	!	!LO:MO:mod=*null:null	!	!LO:MO:mod=*null:null	!
*all\right	*	*all\right	*	*all\right	*	*all\right	*
!	!	!LO:TX:t=P:problem:kreska pseudotaktowa	!	!	!	!LO:TX:t=P:problem:kreska pseudotaktowa	!
00r	.	00r	.	2.G/	A-	1r	.
!	!	!	!	!LO:TX:t=P:problem:kreska pseudotaktowa	!	!	!
.	.	.	.	4G/	-gnus	.	.
!	!	!	!	!	!	!LO:MO:mod=*null:null	!
*	*	*	*	*	*	*2\right	*
!	!	!	!	!	!LO:MO:mod=De-	!	!
.	.	.	.	1B-\	DE-	2.d\	A-
.	.	.	.	.	.	4d\	-gnus
=2-	=2-	=2-	=2-	=2-	=2-	=2-	=2-
!	!	!	!	!	!LO:MO:mod=-i	!LO:TX:t=P:problem:kreska pseudotaktowa	!LO:MO:mod=De-
.	.	.	.	2A/	-I	1f\	DE-
!	!	!	!	!LO:TX:t=P:problem:kreska pseudotaktowa	!	!	!
.	.	.	.	2F/	qui	.	.
!	!	!	!	!	!LO:MO:null:mod=tol-	!	!LO:MO:mod=-i
.	.	.	.	1c\	.	2e\	-I
.	.	.	.	.	.	2c\	qui
=3-	=3-	=3-	=3-	=3-	=3-	=3-	=3-
!LO:TX:t=P:problem:kreska pseudotaktowa	!	!	!	!	!LO:MO:mod=.	!LO:TX:t=P:problem:kreska pseudotaktowa	!LO:MO:null:mod=tol-
1r	.	2.G/	A-	4B-\	tol-	1g\	.
.	.	.	.	4A\	.	.	.
.	.	.	.	4B-\	.	.	.
!	!	!	!	!LO:TX:t=P:problem:kreska pseudotaktowa	!	!	!
.	.	4G/	-gnus	4c\	.	.	.
!	!	!LO:TX:t=P:problem:kreska pseudotaktowa	!	!	!	!	!
*	*	*	*	*lig	*	*	*
!	!	!	!LO:MO:mod=De-	!	!	!	!LO:MO:mod=.
2.D/	A-	1B-\	DE-	1d\	.	4f\	tol-
.	.	.	.	.	.	4e\	.
.	.	.	.	.	.	4f\	.
4D/	-gnus	.	.	.	.	4g\	.
=4-	=4-	=4-	=4-	=4-	=4-	=4-	=4-
!	!LO:MO:mod=De-	!	!LO:MO:mod=-i	!	!	!	!
1F\	DE-	2A/	-I	1c\	.	1a\	.
.	.	2F/	qui	.	.	.	.
*	*	*	*	*Xlig	*	*	*
!LO:MO:mod=*null:null	!	!	!	!LO:MO:mod=*null:null	!	!	!
*2\right	*	*	*	*2\right	*	*	*
!	!LO:MO:mod=-i	!LO:TX:t=P:problem:kreska pseudotaktowa	!	!	!	!	!
2E\	-I	1c\	tol-	2e\	-lis	1.g\	-lis
!LO:TX:t=P:problem:kreska pseudotaktowa	!	!	!	!LO:TX:t=P:problem:kreska pseudotaktowa	!	!	!
2C/	qui	.	.	2e\	pec-	.	.
=5-	=5-	=5-	=5-	=5-	=5-	=5-	=5-
1G\	tol-	4B-\	.	4d\	-ca-	.	.
.	.	4A\	.	4c\	.	.	.
!	!	!	!	!	!	!LO:TX:t=P:problem:kreska pseudotaktowa	!
.	.	4B-\	.	4d\	.	2G/	pec-
.	.	4c\	.	4e\	.	.	.
*	*	*	*	*lig	*	*	*
!	!	!	!	!	!LO:MO:mod=.	!	!
2F\	-lis	1d\	.	1f\	-ta	2A/	-ca-
2D/	pec-	.	.	.	.	4F/	-ta
.	.	.	.	.	.	4f\	pec-
=6-	=6-	=6-	=6-	=6-	=6-	=6-	=6-
!	!	!LO:MO:mod=*null:null	!	!	!	!	!
*	*	*2\right	*	*	*	*	*
!	!	!	!	!LO:TX:t=P:problem:- below	!	!	!
1E-X\	-ca-	2c\	-lis	1.e-X\	.	1g\	-ca-
.	.	2B-\	pec-	.	.	.	.
!	!	!	!	!	!	!LO:TX:t=P:problem:kreska pseudotaktowa	!
1F\	-ta	4A/	-ca-	.	.	1f\	-ta
!	!	!	!LO:MO:null:mod=-ta	!	!	!	!
.	.	4F/	.	.	.	.	.
!LO:TX:t=P:problem:kreska pseudotaktowa	!	!LO:TX:t=P:problem:kreska pseudotaktowa	!	!	!	!	!
*	*	*	*	*Xlig	*	*	*
!	!	!	!	!LO:SIC:v:t=custos c	!	!	!
!	!	!	!LO:MO:mod=mun-	!LO:TX:t=P:problem:kreska pseudotaktowa	!LO:MO:null:mod=-ta	!	!
.	.	1B-\	-tta	2d\	.	.	.
!	!	!	!	!LO:LB:g=original	!	!	!
=7-	=7-	=7-	=7-	=7-	=7-	=7-	=7-
1F\	mun-	.	.	1c\	mun-	1f\	mun-
!	!	!LO:TX:t=P:problem:kreska pseudotaktowa	!LO:MO:mod=.	!	!	!	!
.	.	2A/	mu(n)-	.	.	.	.
!	!	!	!	!LO:TX:t=P:problem:kreska pseudotaktowa	!	!LO:TX:t=P:problem:kreska pseudotaktowa	!
2BB-/	-di	2B-\	-di	1d\	-di	1f\	-di
1B-\	mi-	1d\	mi-	.	.	.	.
=8-	=8-	=8-	=8-	=8-	=8-	=8-	=8-
.	.	.	.	0r	.	1.f\	mi-
!	!	!LO:TX:t=P:problem:kreska pseudotaktowa	!	!	!	!	!
2A\	-ſe-	2c\	-ſe-	.	.	.	.
2B-\	-re-	4d\	-re-	.	.	.	.
!	!	!	!LO:MO:mod=.	!	!	!	!
.	.	4c\	-re	.	.	.	.
2G\	-re	1B-\	.	.	.	2e\	-ſe-
=9-	=9-	=9-	=9-	=9-	=9-	=9-	=9-
*	*ij	*	*	*	*	*	*
!	!	!	!	!LO:TX:t=P:problem:kreska pseudotaktowa	!	!	!
2.F\	mi-	.	.	1r	.	2f\	-re-
!	!	!LO:TX:t=P:problem:kreska pseudotaktowa	!LO:MO:null:mod=-re	!	!	!LO:TX:t=P:problem:kreska pseudotaktowa	!
.	.	2A\	.	.	.	2c\	-re
!LO:TX:t=P:problem:kreska pseudotaktowa	!	!	!	!	!	!	!
4F\	-ſe-	.	.	.	.	.	.
*	*	*	*	*	*	*lig	*
4C/	-re-	1c\	no-	2r	.	1e-X\	no-
4D/	.	.	.	.	.	.	.
4E-X\	.	.	.	1c\	mi-	.	.
4F\	.	.	.	.	.	.	.
=10-	=10-	=10-	=10-	=10-	=10-	=10-	=10-
!LO:TX:t=P:problem:kreska pseudotaktowa	!	!LO:TX:t=P:problem:kreska pseudotaktowa	!	!	!	!	!
1G\	.	1G/	-bis	.	.	1d\	.
!	!	!	!	!LO:TX:t=P:problem:kreska pseudotaktowa	!	!	!
!	!	!	!	!LO:MO:mod=!null:null	!	!	!
!	!	!	!	!LO:N:acc=#	!	!	!
.	.	.	.	2Bn\	-ſe-	.	.
*	*	*	*	*	*	*Xlig	*
!	!	!	!	!	!	!LO:MO:mod=!null:null	!
!	!	!	!	!	!	!LO:N:acc=#	!
2C/	-re	1r	.	2c\	-re-	2en\	-bis
*	*Xij	*	*ij	*	*	*	*ij
4D/	no-	.	.	2A/	-re	1f\	mi-
4C/	.	.	.	.	.	.	.
=11-	=11-	=11-	=11-	=11-	=11-	=11-	=11-
2BB-/	.	2r	.	1G/	no-	.	.
!LO:SIC:v:t=custos FF	!	!	!	!	!	!LO:SIC:v:t=custos f	!
!LO:TX:t=P:problem:kreska pseudotaktowa	!	!	!	!	!	!LO:TX:t=P:problem:kreska pseudotaktowa	!
2C/	.	1c\	mi-	.	.	2e\	-ſe-
!	!	!	!	!LO:TX:t=P:problem:kreska pseudotaktowa	!	!LO:LB:g=original	!
*	*	*	*	*	*	*lig	*
!LO:LB:g=original	!	!	!	!	!	!	!
2FF/	-bis	.	.	1A\	-bis	1f\	-re-
!	!	!LO:TX:t=P:problem:kreska pseudotaktowa	!	!	!	!	!
1F\	mi-	2A\	-ſe-	.	.	.	.
=12-	=12-	=12-	=12-	=12-	=12-	=12-	=12-
.	.	2c\	-re-	2r	.	1g\	.
*	*	*	*	*	*ij	*	*
2Eny\	-ſe-	2G/	-re	1c\	mi-	.	.
!LO:TX:t=P:problem:kreska pseudotaktowa	!	!	!	!	!	!	!
*	*	*	*	*	*	*Xlig	*
2F\	-re-	2A/	no-	.	.	1f\	.
!	!	!	!	!LO:TX:t=P:problem:kreska pseudotaktowa	!	!	!
!	!	!	!	!LO:MO:mod=!null:null	!	!	!
!	!	!	!	!LO:N:acc=#	!	!	!
2D/	-re	4G/	.	2Bn\	-ſe-	.	.
!	!	!LO:SIC:v:t=custos G	!	!	!	!	!
!	!	!LO:TX:t=P:problem:kreska pseudotaktowa	!	!	!	!	!
.	.	4F/	.	.	.	.	.
!	!	!LO:LB:g=original	!	!	!	!	!
=13-	=13-	=13-	=13-	=13-	=13-	=13-	=13-
*lig	*	*	*	*	*	*	*
!	!	!	!	!	!	!LO:TX:t=P:problem:kreska pseudotaktowa	!
1C/	no-	2G/	.	2c\	-re-	1e-X\	-re
.	.	2c\	.	2G/	-re	.	.
*col	*	*	*	*	*	*	*
2.D\	.	2F,</	-bis	1.B-y\	no-	1d\	no-
*	*	*	*Xij	*	*	*	*
.	.	1f\	mi-	.	.	.	.
*Xlig	*	*	*	*	*	*	*
4E\	.	.	.	.	.	.	.
*Xcol	*	*	*	*	*	*	*
=14-	=14-	=14-	=14-	=14-	=14-	=14-	=14-
!LO:TX:t=P:problem:kreska pseudotaktowa	!	!	!	!	!	!	!
1F\	.	.	.	.	.	2c/	-bis
!	!	!LO:TX:t=P:problem:kreska pseudotaktowa	!	!LO:TX:t=P:problem:kreska pseudotaktowa	!	!	!
.	.	2c\	-ſe-	2A/	.	1f\	mi-
!	!	!	!	!LO:TX:t=P:problem:kreska pseudotaktowa	!	!	!
2BB-/	-bis	4d\	-re-	1B-\	-bis	.	.
*	*ij	*	*	*	*Xij	*	*
!	!	!	!LO:MO:mod=.	!	!	!	!
.	.	4c\	-re	.	.	.	.
!	!	!	!	!	!	!LO:TX:t=P:problem:kreska pseudotaktowa	!
1G\	mi-	4B-\	.	.	.	2g\	-ſe-
!	!	!LO:TX:t=P:problem:kreska pseudotaktowa	!	!	!	!	!
.	.	4A/	.	.	.	.	.
=15-	=15-	=15-	=15-	=15-	=15-	=15-	=15-
.	.	2G/	.	2r	.	2.d\	-re-
!LO:TX:t=P:problem:kreska pseudotaktowa	!	!	!	!	!	!	!
2F#X\	-ſe-	2A/	.	1d\	mi-	.	.
.	.	.	.	.	.	4c/	.
2G\	-re-	2B-/	.	.	.	2B-/	.
!	!	!	!LO:MO:null:mod=-re	!LO:TX:t=P:problem:kreska pseudotaktowa	!	!LO:TX:t=P:problem:kreska pseudotaktowa	!
2E-X\	-re	4A/	.	2c\	-ſe-	2c/	.
!	!	!LO:TX:t=P:problem:kreska pseudotaktowa	!	!	!	!	!
.	.	4G/	.	.	.	.	.
=16-	=16-	=16-	=16-	=16-	=16-	=16-	=16-
!	!	!	!LO:MO:null:mod=no-	!	!	!	!
0D\	no-	4F#X/	.	2d\	-re-	2A/	-re
!	!	!	!LO:MO:mod=.	!	!	!	!
.	.	4D/	no-	.	.	.	.
.	.	1G/	.	2B-\	-re	4B-/	no-
.	.	.	.	.	.	4c/	.
.	.	.	.	1A\	no-	4d/	.
.	.	.	.	.	.	4e-X\	.
!	!	!LO:SIC:s=2F#	!	!	!	!	!
!	!	!LO:TX:t=P:problem:# below	!LO:MO:mod=.	!	!	!LO:TX:t=P:problem:kreska pseudotaktowa	!
.	.	2F#X/	-bis	.	.	2d\	.
=17-	=17-	=17-	=17-	=17-	=17-	=17-	=17-
!LO:SIC:s=0GG;	!LO:MO:mod=-bis.	!LO:SIC:s=0G;	!LO:MO:null:mod=-bis.	!LO:SIC:s=0B-;	!LO:MO:mod=-bis.	!LO:SIC:s=0d;	!LO:MO:mod=-bis.
0GG/;l	-bis	0G/;l	.	0B-\;<l	-b(is).	0d\;<l	-bis
!LO:PB:g=original	!	!	!	!LO:LB:g=original	!	!	!
=18||	=18||	=18||	=18||	=18||	=18||	=18||	=18||
*M2/1	*Xij	*M2/1	*	*M2/1	*	*M2/1	*Xij
*met(C|)	*	*met(C|)	*	*met(C|)	*	*met(C|)	*
*mmet(c|)	*	*mmet(c|)	*	*mmet(c|)	*	*mmet(c|)	*
!	!	!	!	!LO:TX:t=P:problem:kreska pseudotaktowa	!	!	!
00r	.	00r	.	00r	.	1g\	A-
.	.	.	.	.	.	2d\	-gnus
!	!	!	!	!	!	!LO:TX:t=P:problem:kreska pseudotaktowa	!LO:MO:mod=De-
.	.	.	.	.	.	2f\	DE-
=19-	=19-	=19-	=19-	=19-	=19-	=19-	=19-
!	!	!	!	!	!	!	!LO:MO:mod=-i
.	.	.	.	.	.	2c\	-I
.	.	.	.	.	.	2e-X\	qui
.	.	.	.	.	.	4B-/	tol-
.	.	.	.	.	.	4c/	.
.	.	.	.	.	.	4d\	.
!	!	!	!	!	!	!LO:TX:t=P:problem:kreska pseudotaktowa	!
.	.	.	.	.	.	4e-\	.
=20-	=20-	=20-	=20-	=20-	=20-	=20-	=20-
00r	.	00r	.	1d\	A-	4f\	.
.	.	.	.	.	.	4g\	.
.	.	.	.	.	.	2.a\	.
.	.	.	.	2A\	-gnus	.	.
.	.	.	.	.	.	8g\L	.
!	!	!	!	!	!	!LO:SIC:v:t=custos e	!
.	.	.	.	.	.	8f\J	.
!	!	!	!	!LO:TX:t=P:problem:kreska pseudotaktowa	!LO:MO:mod=De-	!LO:LB:g=original	!
.	.	.	.	2c\	DE-	4eny\	.
!	!	!	!	!	!	!LO:TX:t=P:problem:kreska pseudotaktowa	!
.	.	.	.	.	.	4f\	.
=21-	=21-	=21-	=21-	=21-	=21-	=21-	=21-
!	!	!	!	!	!LO:MO:mod=-i	!	!
.	.	.	.	2G/	-I	4g\	.
.	.	.	.	.	.	4f\	.
!	!	!	!	!LO:TX:t=P:problem:kreska pseudotaktowa	!	!	!
.	.	.	.	2B-\	qui	4d\	.
!	!	!	!	!	!	!LO:TX:t=P:problem:kreska pseudotaktowa	!
.	.	.	.	.	.	4e\	.
.	.	.	.	4F/	tol-	4f\	.
.	.	.	.	4G/	.	4e\	.
.	.	.	.	4A/	.	4c\	.
!	!	!	!	!LO:TX:t=P:problem:kreska pseudotaktowa	!	!	!
.	.	.	.	4B-\	.	4d\	.
=22-	=22-	=22-	=22-	=22-	=22-	=22-	=22-
!LO:TX:t=P:problem:kreska pseudotaktowa	!	!LO:TX:t=P:problem:kreska pseudotaktowa	!	!	!	!LO:TX:t=P:problem:kreska pseudotaktowa	!
1r	.	00r	.	4c\	.	1e-X\	.
.	.	.	.	4G/	.	.	.
.	.	.	.	1c\	.	.	.
1G\	A-	.	.	.	.	2d\	-lis
.	.	.	.	4B-\	.	2d\	pec-
!	!	!	!	!LO:TX:t=P:problem:kreska pseudotaktowa	!	!	!
.	.	.	.	4c\	.	.	.
=23-	=23-	=23-	=23-	=23-	=23-	=23-	=23-
2D/	-gnus	.	.	4d\	.	4f\	-ca-
.	.	.	.	4c\	.	4e-X\	.
!	!LO:MO:mod=De-	!	!	!	!	!	!
2Fny\	DE-	.	.	4A\	.	4c\	.
.	.	.	.	4B-\	.	4d\	.
!	!LO:MO:mod=-i	!	!	!	!	!LO:SIC:s=4e-	!
2C/	-I	.	.	4c\	.	4e-X\	.
.	.	.	.	4B-\	.	4d\	.
!LO:TX:t=P:problem:kreska pseudotaktowa	!	!	!	!	!	!	!
2E-X\	qui	.	.	4G\	.	4B-\	.
!	!	!	!	!LO:TX:t=P:problem:kreska pseudotaktowa	!	!LO:TX:t=P:problem:kreska pseudotaktowa	!
.	.	.	.	4A\	.	4c\	.
=24-	=24-	=24-	=24-	=24-	=24-	=24-	=24-
*	*	*	*	*lig	*	*	*
4BB-/	tol-	1d\	A-	1B-\	.	4d\	.
4C/	.	.	.	.	.	4eny\	.
4D/	.	.	.	.	.	1f\	.
4BB-/	.	.	.	.	.	.	.
4F\	.	2A\	-gnus	1c\	.	.	.
4E-X\	.	.	.	.	.	.	.
!	!	!	!LO:MO:mod=De-	!	!	!LO:SIC:s=1e-	!
4C/	.	2c\	DE-	.	.	1e-X\	.
4D/	.	.	.	.	.	.	.
!LO:TX:t=P:problem:kreska pseudotaktowa	!	!LO:TX:t=P:problem:kreska pseudotaktowa	!	!	!	!	!
*	*	*	*	*Xlig	*	*	*
=25-	=25-	=25-	=25-	=25-	=25-	=25-	=25-
!	!	!	!LO:MO:mod=-i	!	!	!	!
4E-X\	.	2G/	-I	1.B-\	.	.	.
4D/	.	.	.	.	.	.	.
!	!	!LO:TX:t=P:problem:kreska pseudotaktowa	!	!	!	!	!
4BB-/	.	2B-\	qui	.	.	(>1d\	-ta
!LO:TX:t=P:problem:kreska pseudotaktowa	!	!	!	!	!	!	!
4C/	.	.	.	.	.	.	.
4D/	.	4Fny/	tol-	.	.	.	.
4E-\	.	4G/	.	.	.	.	.
!	!	!	!	!LO:TX:t=P:problem:kreska pseudotaktowa	!	!LO:TX:t=P:problem:kreska pseudotaktowa	!
1F\	.	4A/	.	2A/	.	2c\)	.
.	.	4B-\	.	.	.	.	.
=26-	=26-	=26-	=26-	=26-	=26-	=26-	=26-
.	.	4c\	.	1G/	.	1c\	mun-
.	.	4G/	.	.	.	.	.
!	!LO:MO:mod=.	!	!	!	!	!	!
2Eny\	-lis	4c\	.	.	.	.	.
!	!	!LO:TX:t=P:problem:kreska pseudotaktowa	!	!	!	!	!
.	.	4B-\	.	.	.	.	.
!LO:TX:t=P:problem:kreska pseudotaktowa	!LO:MO:null:mod=-lis	!	!	!	!	!	!
1F\	.	2A/	.	2F/	-lis	2c\	-di
!	!	!	!	!LO:TX:t=P:problem:kreska pseudotaktowa	!	!	!
.	.	4F/	-lis	2A/	pec-	2f\	qui
!	!	!LO:SIC:v:t=custos G	!	!	!	!	!
!	!	!LO:TX:t=P:problem:kreska pseudotaktowa	!	!	!	!	!
.	.	4F/	pec-	.	.	.	.
!	!	!LO:PB:g=original	!	!	!	!	!
=27-	=27-	=27-	=27-	=27-	=27-	=27-	=27-
1r	.	2G/	-ca-	2B-\	-ca-	1e-X\	tol-
.	.	2A/	-ta	2c\	-ta	.	.
!	!	!LO:TX:t=P:problem:kreska pseudotaktowa	!	!LO:TX:t=P:problem:kreska pseudotaktowa	!	!	!
2r	.	1B-\	mun-	1d\	mun-	2d\	-lis
!LO:TX:t=P:problem:kreska pseudotaktowa	!	!	!	!	!	!LO:TX:t=P:problem:kreska pseudotaktowa	!
2BB-/	pec-	.	.	.	.	2f\	pec-
=28-	=28-	=28-	=28-	=28-	=28-	=28-	=28-
2C/	-ca-	2A/	.	2c\	.	2e-X\	-ca-
2D/	-ta	2F#X/	.	1B-\	.	4d\	-ta
.	.	.	.	.	.	2d\	mun-
!	!	!LO:TX:t=P:problem:kreska pseudotaktowa	!	!	!	!	!
1E-X\	mun-	1G/	.	.	.	.	.
.	.	.	.	.	.	8c\L	.
.	.	.	.	.	.	8B-\J	.
.	.	.	.	4A/	.	2c\	.
!	!	!	!	!LO:TX:t=P:problem:kreska pseudotaktowa	!	!	!
.	.	.	.	4G/	.	.	.
=29-	=29-	=29-	=29-	=29-	=29-	=29-	=29-
!	!	!	!	!LO:SIC:v:t=custos B-	!	!LO:SIC:v:t=custos g	!
!LO:TX:t=P:problem:kreska pseudotaktowa	!	!	!	!LO:TX:t=P:problem:kreska pseudotaktowa	!	!LO:TX:t=P:problem:kreska pseudotaktowa	!
1D\	-di	2A/	-di	1A\	.	1d\	-di
.	.	1d\	mi-	.	.	.	.
!	!	!	!	!LO:LB:g=original	!	!LO:LB:g=original	!
1.G\	mi-	.	.	2B-,<\	-di	0r	.
!	!	!LO:TX:t=P:problem:kreska pseudotaktowa	!	!LO:TX:t=P:problem:kreska pseudotaktowa	!	!	!
.	.	2c\	-ſe-	2c\	mi-	.	.
=30-	=30-	=30-	=30-	=30-	=30-	=30-	=30-
!	!	!	!	!	!LO:MO:mod=.	!	!
.	.	1.B-\	-re-	2d\	-ſe-	.	.
!LO:SIC:v:t=custos E-	!	!	!	!	!LO:MO:mod=-se-	!	!
2F\	-ſe-	.	.	2d\	-re-	.	.
!LO:LB:g=original	!	!	!	!	!LO:MO:mod=-re-	!	!
1.E-X\	-re-	.	.	1e-X\	-re	2r	.
.	.	2A/	-re	.	.	1g\	mi-
=31-	=31-	=31-	=31-	=31-	=31-	=31-	=31-
!	!	!LO:TX:t=P:problem:kreska pseudotaktowa	!	!LO:TX:t=P:problem:kreska pseudotaktowa	!LO:MO:null:mod=-re	!	!
.	.	1G/	no-	1B-\	.	.	.
!LO:TX:t=P:problem:kreska pseudotaktowa	!LO:MO:mod=.	!	!	!	!	!LO:TX:t=P:problem:kreska pseudotaktowa	!
2D/	-re	.	.	.	.	2f\	-ſe-
!	!LO:MO:null:mod=-re	!	!	!	!	!LO:SIC:s=1.e-	!
1C/	.	2c\	-bis	2e-X\	no-	1.e-X\	-re-
*	*	*	*ij	*	*	*	*
.	.	2B-\	mi-	2d\	.	.	.
=32-	=32-	=32-	=32-	=32-	=32-	=32-	=32-
1C/	no-	2A/	-ſe-	1.c\	.	.	.
!	!	!LO:TX:t=P:problem:kreska pseudotaktowa	!	!	!	!	!
.	.	2G/	-re-	.	.	2e-X\	-re
0D\	.	2F#X/	-re	.	.	0d\	no-
!	!	!	!	!LO:TX:t=P:problem:kreska pseudotaktowa	!LO:MO:mod=.	!	!
.	.	1G/	no-	2B-\	-bis	.	.
=33-	=33-	=33-	=33-	=33-	=33-	=33-	=33-
.	.	.	.	1A\	.	.	.
.	.	2F#i/	.	.	.	.	.
!	!	!	!	!LO:MO:mod=!LO&colon;N&colon;vis=0	!	!	!
!	!	!	!	!LO:SIC:s=1B;	!	!	!
!LO:MO:mod=!LO&colon;N&colon;vis=0	!	!LO:MO:mod=!LO&colon;N&colon;vis=0	!	!LO:MO:mod=!null:null	!	!LO:MO:mod=!LO&colon;N&colon;vis=0	!
!LO:SIC:s=1GG;	!LO:MO:mod=-bis.	!LO:SIC:s=1G;	!LO:MO:null:mod=-bis.	!LO:N:acc=#	!LO:MO:null:mod=-bis.	!LO:SIC:s=1d;	!
1GG/;l	-bis	1G/;l	-bis	1Bn\;<l	.	1d\;l	-bis.
!	!	!LO:LB:g=original	!	!	!	!	!
=34||	=34||	=34||	=34||	=34||	=34||	=34||	=34||
*M2/1	*	*M2/1	*Xij	*M2/1	*	*M2/1	*
*met(C|)	*	*met(C|)	*	*met(C|)	*	*met(C|)	*
*mmet(c|)	*	*mmet(c|)	*	*mmet(c|)	*	*mmet(c|)	*
!	!	!	!	!LO:MO:mod=!null:null	!	!	!
!	!	!	!	!LO:N:acc=#	!	!	!
1.GG/	A-	1.G/	A-	1.Bn\	A-	1.d\	A-
!	!	!LO:TX:t=P:problem:kreska pseudotaktowa	!	!LO:TX:t=P:problem:kreska pseudotaktowa	!	!LO:TX:t=P:problem:kreska pseudotaktowa	!
2GG/	-gnus	2G/	-gnus	2B\	-gnus	2d\	-gnus
=35-	=35-	=35-	=35-	=35-	=35-	=35-	=35-
!	!LO:MO:mod=De-	!	!LO:MO:mod=De-	!	!LO:MO:mod=De-	!	!LO:MO:mod=De-
1C/	DE-	1G/	DE-	1c\	DE-	1e-X\	DE-
!LO:TX:t=P:problem:kreska pseudotaktowa	!LO:MO:mod=-i	!LO:TX:t=P:problem:kreska pseudotaktowa	!LO:MO:mod=-i	!LO:TX:t=P:problem:kreska pseudotaktowa	!LO:MO:mod=-i	!	!LO:MO:mod=-i
1GG/	-I	1G/	-I	1B-X\	-I	2d\	-I
!	!	!	!	!	!	!LO:TX:t=P:problem:kreska pseudotaktowa	!
.	.	.	.	.	.	2d\	qui
=36-	=36-	=36-	=36-	=36-	=36-	=36-	=36-
0r	.	00r	.	2r	.	1g\	tol-
!	!	!	!	!LO:TX:t=P:problem:kreska pseudotaktowa	!	!	!
.	.	.	.	2G/	qui	.	.
.	.	.	.	1d\	tol-	2f\	-lis
!	!	!	!	!	!	!LO:TX:t=P:problem:kreska pseudotaktowa	!
.	.	.	.	.	.	2d\	pec-
=37-	=37-	=37-	=37-	=37-	=37-	=37-	=37-
!LO:TX:t=P:problem:kreska pseudotaktowa	!	!	!	!	!	!	!
1r	.	.	.	2c\	-lis	2e\	-ca-
!	!	!	!	!LO:SIC:v:t=custos B-	!	!	!
!	!	!	!	!LO:TX:t=P:problem:kreska pseudotaktowa	!	!LO:TX:t=P:problem:kreska pseudotaktowa	!LO:MO:null:mod=-ta
.	.	.	.	2A/	pec-	2f\	.
!	!	!	!	!LO:LB:g=original	!	!	!LO:MO:null:mod=pec-
1GG/	qui	.	.	4B-\	-ca-	4d\	-ta
.	.	.	.	4A\	.	4c\	.
!	!	!	!	!	!LO:MO:mod=.	!	!LO:MO:mod=.
.	.	.	.	4B-\	-ta	4d\	pec-
!	!	!	!	!LO:TX:t=P:problem:kreska pseudotaktowa	!	!LO:TX:t=P:problem:kreska pseudotaktowa	!
.	.	.	.	4G/	.	4e\	.
=38-	=38-	=38-	=38-	=38-	=38-	=38-	=38-
1D\	tol-	2r	.	4A/	.	4f\	.
!	!	!	!	!	!	!	!LO:MO:mod=.
.	.	.	.	4G/	.	4e\	-ca-
!	!	!LO:TX:t=P:problem:kreska pseudotaktowa	!	!	!	!	!
.	.	2D/	qui	4A/	.	4f\	.
!	!	!	!	!LO:TX:t=P:problem:kreska pseudotaktowa	!	!LO:TX:t=P:problem:kreska pseudotaktowa	!
.	.	.	.	4B-\	.	4d\	.
2C/	-lis	1A\	tol-	1c\	.	4e\	.
.	.	.	.	.	.	4c\	.
!	!	!	!	!	!	!	!LO:MO:null:mod=-ca-
2AA/	pec-	.	.	.	.	2.f\	.
=39-	=39-	=39-	=39-	=39-	=39-	=39-	=39-
!	!LO:MO:null:mod=-ca-	!	!	!	!LO:MO:null:mod=-ta	!	!
2BB-/	.	2.G/	-lis	2d,<\	.	.	.
.	.	.	.	.	.	8e\L	.
.	.	.	.	.	.	8d\J	.
!	!	!	!	!	!	!LO:TX:t=P:problem:kreska pseudotaktowa	!
!	!LO:MO:mod=.	!	!	!LO:TX:t=P:problem:kreska pseudotaktowa	!	!LO:SIC:v:t=custos d	!
1C/	-ca-	.	.	2G/	pec-	2e\	.
!	!	!LO:TX:t=P:problem:kreska pseudotaktowa	!	!	!	!	!
.	.	4E/	pec-	.	.	.	.
!	!	!	!	!	!	!LO:PB:g=original	!
.	.	4F#X/	-ca-	2A/	-ca-	1d\	-ta
!	!	!	!LO:MO:mod=.	!	!	!	!
.	.	4D/	-ta	.	.	.	.
!	!	!	!LO:MO:mod=-ta	!	!	!	!
2BB-/	-ta	1G/	mun-	2D/	-ta	.	.
=40-	=40-	=40-	=40-	=40-	=40-	=40-	=40-
!	!	!	!	!	!	!LO:TX:t=P:problem:kreska pseudotaktowa	!
1AA/	mun-	.	.	1A\	mun-	1c\	mun-
!	!	!LO:TX:t=P:problem:kreska pseudotaktowa	!LO:MO:null:mod=mun-	!	!	!	!
.	.	2F#X/	.	.	.	.	.
!LO:TX:t=P:problem:kreska pseudotaktowa	!	!	!	!LO:TX:t=P:problem:kreska pseudotaktowa	!	!	!
1GG/	-di	1G/	-di	1D/	-di	1B-/	-di
=41-	=41-	=41-	=41-	=41-	=41-	=41-	=41-
!LO:SIC:v:t=custos GG	!	!LO:TX:t=P:problem:kreska pseudotaktowa	!	!	!	!	!
!LO:TX:t=P:problem:kreska pseudotaktowa	!	!	!	!	!	!	!LO:MO:null:mod=do-
00r	.	00r	.	2.G/	do-	4G/	.
!	!	!	!	!	!	!	!LO:MO:mod=.
.	.	.	.	.	.	4A/	do-
.	.	.	.	.	.	4B-/	.
!	!	!	!	!LO:TX:t=P:problem:kreska pseudotaktowa	!	!LO:TX:t=P:problem:kreska pseudotaktowa	!
.	.	.	.	4G/	-na	4c/	-na
!	!	!	!	!	!	!	!LO:MO:null:mod=no-
!	!	!	!	!	!LO:MO:null:mod=no-	!	!
.	.	.	.	4F/	.	4d\	.
!	!	!	!	!	!LO:MO:mod=.	!	!
.	.	.	.	4G/	no-	4e\	.
!	!	!	!	!	!	!	!LO:MO:mod=-bis
.	.	.	.	4A/	.	4f\	no-
!	!	!	!	!	!	!LO:TX:t=P:problem:kreska pseudotaktowa	!
.	.	.	.	4B-\	.	4d\	.
=42-	=42-	=42-	=42-	=42-	=42-	=42-	=42-
!	!	!	!	!	!	!	!LO:MO:mod=pa-
.	.	.	.	2c\	.	4e-i\	-bis
.	.	.	.	.	.	4f\	.
!	!	!	!	!LO:TX:t=P:problem:kreska pseudotaktowa	!	!	!LO:MO:mod=.
.	.	.	.	2B-\	-bis	1g\	pa-
.	.	.	.	1A\	pa-	.	.
!	!	!	!	!	!	!LO:TX:t=P:problem:# above	!LO:MO:mod=.
.	.	.	.	.	.	2f#X\	-cem
!LO:LB:g=original	!	!	!	!	!	!	!
=43-	=43-	=43-	=43-	=43-	=43-	=43-	=43-
!	!	!	!	!LO:SIC:s=1B-	!	!	!
!	!	!	!	!LO:TX:t=P:problem:kreska pseudotaktowa	!	!LO:TX:t=P:problem:kreska pseudotaktowa	!LO:MO:null:mod=-cem
4GG/	do-	2.G/	do-	1B-X\	-cem	1g\	.
4AA/	.	.	.	.	.	.	.
4BB-/	.	.	.	.	.	.	.
!LO:TX:t=P:problem:kreska pseudotaktowa	!LO:MO:null:mod=-na	!	!	!	!	!	!
4C/	.	4G/	-na	.	.	.	.
!	!LO:MO:null:mod=no-	!	!	!	!	!LO:TX:t=P:problem:kreska pseudotaktowa	!
4D\	.	4Fny/	no-	00r	.	0r	.
4Eny\	.	4G/	.	.	.	.	.
!	!LO:MO:mod=-bis	!	!	!	!	!	!
4F\	-na	4A/	.	.	.	.	.
!	!	!LO:TX:t=P:problem:kreska pseudotaktowa	!	!	!	!	!
4D\	.	4B-\	.	.	.	.	.
=44-	=44-	=44-	=44-	=44-	=44-	=44-	=44-
!	!LO:MO:mod=pa-	!	!	!	!	!	!
4E-i\	no-	2c\	.	.	.	.	.
4F\	.	.	.	.	.	.	.
!	!LO:MO:mod=.	!	!	!	!	!	!
1G\	-bis	2B-\	.	.	.	.	.
*	*	*	*	*	*	*	*ij
.	.	1A\	-bis	.	.	2.d\	do-
!LO:TX:t=P:problem:# above	!LO:MO:mod=.	!	!	!	!	!	!
2F#X\	pa-	.	.	.	.	.	.
.	.	.	.	.	.	4d\	-na
=45-	=45-	=45-	=45-	=45-	=45-	=45-	=45-
!LO:TX:t=P:problem:kreska pseudotaktowa	!	!	!	!	!	!	!
1G\	-cem	4G/	pa-	.	.	4B-/	no-
.	.	4A/	.	.	.	4c/	.
.	.	4B-/	.	.	.	4d\	.
!	!	!LO:TX:t=P:problem:kreska pseudotaktowa	!	!	!	!LO:TX:t=P:problem:kreska pseudotaktowa	!
.	.	4G/	.	.	.	4e\	.
!	!	!	!	!LO:TX:t=P:problem:kreska pseudotaktowa	!	!	!
0r	.	4A\	.	1r	.	2fny\	.
.	.	4B-\	.	.	.	.	.
.	.	1c\	.	.	.	2e-X\	-bis
=46-	=46-	=46-	=46-	=46-	=46-	=46-	=46-
.	.	.	.	2.G/	do-	1d\	pa-
!	!	!LO:MO:mod=!null:null	!	!	!	!	!
!	!	!LO:N:acc=#	!	!	!	!	!
!	!	!LO:TX:t=P:problem:# above	!	!	!	!	!
.	.	2Bn\	.	.	.	.	.
!	!	!	!	!LO:TX:t=P:problem:kreska pseudotaktowa	!	!	!
.	.	.	.	4G/	-na	.	.
!	!	!LO:SIC:v:t=custos d	!	!	!	!	!
!	!	!LO:TX:t=P:problem:kreska pseudotaktowa	!	!	!	!LO:TX:t=P:problem:kreska pseudotaktowa	!
2.C/	do-	1c\	.	4E-X/	no-	1c\	-cem
*	*	*	*	*	*	*	*Xij
.	.	.	.	4F/	.	.	.
.	.	.	.	4G/	.	.	.
!	!	!	!	!LO:TX:t=P:problem:kreska pseudotaktowa	!	!	!
4C/	-na	.	.	4A/	.	.	.
!	!	!LO:LB:g=original	!	!	!	!	!
=47-	=47-	=47-	=47-	=47-	=47-	=47-	=47-
!	!	!LO:TX:t=P:problem:kreska pseudotaktowa	!	!	!	!	!
4BB-/	no-	1d\	-cem	2B-\	.	1r	.
4C/	.	.	.	.	.	.	.
!	!	!	!	!LO:TX:t=P:problem:kreska pseudotaktowa	!	!	!
4D/	.	.	.	2B-\	-bis	.	.
!LO:TX:t=P:problem:kreska pseudotaktowa	!	!	!	!	!	!	!
4E\	.	.	.	.	.	.	.
!LO:SIC:s=2F	!	!	!	!	!	!	!LO:MO:null:mod=[do-
(2Fny\	.	00r	.	4A\	pa-	2.c/	.
.	.	.	.	4B-\	.	.	.
!LO:SIC:s=2E-i	!	!	!	!	!	!	!
2E\)	.	.	.	1c\	.	.	.
!	!	!	!	!	!	!LO:TX:t=P:problem:kreska pseudotaktowa	!LO:MO:null:mod=-na
.	.	.	.	.	.	4c/	.
=48-	=48-	=48-	=48-	=48-	=48-	=48-	=48-
!	!	!	!	!	!	!	!LO:MO:null:mod=no-
2D/	.	.	.	.	.	4d\	.
.	.	.	.	.	.	4eny\	.
!	!	!	!	!LO:SIC:v:t=custos c	!	!	!
!	!	!	!	!LO:TX:t=P:problem:# above	!	!	!
!	!	!	!	!LO:MO:mod=!null:null	!	!	!
!LO:TX:t=P:problem:kreska pseudotaktowa	!	!	!	!LO:N:acc=#	!	!	!
2D/	-bis	.	.	2Bn\	.	4f\	.
.	.	.	.	.	.	4d\	.
!	!	!	!	!LO:PB:g=original	!	!	!
4C/	pa-	.	.	4c\	.	2e-X\	.
4D/	.	.	.	4B-i\	.	.	.
!	!	!	!	!	!	!LO:TX:t=P:problem:kreska pseudotaktowa	!LO:MO:null:mod=-bis
4E-X\	.	.	.	4G/	.	2e-\	.
!	!	!	!	!LO:TX:t=P:problem:kreska pseudotaktowa	!	!	!
4F\	.	.	.	4A/	.	.	.
=49-	=49-	=49-	=49-	=49-	=49-	=49-	=49-
!	!	!	!	!	!	!	!LO:MO:null:mod=pa-
4G\	.	.	.	4B-\	.	1d\	.
4A\	.	.	.	4c\	.	.	.
1B-\	.	.	.	4d\	.	.	.
!	!	!	!	!LO:TX:t=P:problem:kreska pseudotaktowa	!	!	!
.	.	.	.	4e-X\	.	.	.
!	!	!LO:TX:t=P:problem:kreska pseudotaktowa	!	!	!LO:MO:mod=.	!LO:SIC:v:t=custos G	!LO:MO:null:mod=-cem]
.	.	1r	.	1c\	-cem	2f\	.
!LO:TX:t=P:problem:kreska pseudotaktowa	!	!	!	!	!	!LO:LB:g=original	!
!	!	!	!	!	!	!LO:TX:t=P:problem:kreska pseudotaktowa	!
2A\	.	.	.	.	.	2r	.
=50-	=50-	=50-	=50-	=50-	=50-	=50-	=50-
!	!	!	!	!LO:TX:t=P:problem:kreska pseudotaktowa	!LO:MO:null:mod=-cem	!	!
2G\	.	2.G/	do-	1B-\	.	4G/	do-
.	.	.	.	.	.	4A/	.
!	!	!	!	!	!	!	!LO:MO:mod=.
2GG/	.	.	.	.	.	4B-/	-na
!	!	!	!	!	!	!LO:TX:t=P:problem:kreska pseudotaktowa	!LO:MO:null:mod=-na
.	.	4G/	-na	.	.	4c/	.
!LO:TX:t=P:problem:kreska pseudotaktowa	!	!	!LO:MO:null:mod=no-	!	!	!	!
1D\	-cem	4F/	.	0r	.	4d\	no-
.	.	4G/	.	.	.	4eny\	.
!	!	!	!LO:MO:mod=.	!	!	!	!LO:MO:null:mod=-bis
.	.	4A/	no-	.	.	4f\	.
!	!	!LO:TX:t=P:problem:kreska pseudotaktowa	!	!	!	!	!LO:MO:mod=.
.	.	4B-y\	.	.	.	4d\	-bis
=51-	=51-	=51-	=51-	=51-	=51-	=51-	=51-
!	!	!	!	!	!	!	!LO:MO:null:mod=pa-
2C/	no-	2c\	.	.	.	4e-X\	.
!	!	!	!	!	!	!	!LO:MO:mod=.
.	.	.	.	.	.	4f\	pa-
2E-X\	-bis	2B-\	-bis	.	.	1g\	.
!	!	!LO:TX:t=P:problem:kreska pseudotaktowa	!	!	!	!	!
(2C/	pa-	1A\	pa-	2r	.	.	.
!	!	!	!	!	!	!LO:TX:t=P:problem:# above	!
!LO:SIC:v:t=custos GG	!	!	!	!	!	!LO:TX:t=P:problem:kreska pseudotaktowa	!
2D/)	.	.	.	1d\	do-	2f#X\	.
!LO:LB:g=original	!	!	!	!	!	!	!
=52-	=52-	=52-	=52-	=52-	=52-	=52-	=52-
!	!	!	!LO:MO:mod=-cem	!	!	!	!
2GG/	-cem	2B-\	-ce(m)	.	.	1g\	-cem
!	!	!	!LO:MO:mod=do-	!LO:TX:t=P:problem:kreska pseudotaktowa	!	!	!
4G\	do-	4B-\	Do-	2B-\	-na	.	.
!LO:TX:t=P:problem:kreska pseudotaktowa	!	!LO:TX:t=P:problem:kreska pseudotaktowa	!	!	!	!	!
4F\	.	4A\	.	.	.	.	.
!LO:TX:t=P:problem:♭above	!	!LO:TX:t=P:problem:kreska pseudotaktowa	!	!	!	!	!
*	*	*	*	*	*	*	*ij
!	!	!	!LO:MO:mod=.	!	!	!	!
4E-X\	.	1G/	-na	1c\	no-	4g\	do-
4D\	.	.	.	.	.	4fny\	.
1C/	.	.	.	.	.	4.e-X\	.
!	!	!	!	!	!	!LO:TX:t=P:problem:kreska pseudotaktowa	!
.	.	.	.	.	.	8e-\	-na
=53-	=53-	=53-	=53-	=53-	=53-	=53-	=53-
!	!	!	!LO:MO:mod=-na	!	!	!	!
.	.	1.G/	no-	1d\	-bis	1.d\	no-
!LO:MO:mod=!null:null	!	!	!	!	!	!	!
!LO:N:acc=#	!	!	!	!	!	!	!
!LO:TX:t=P:problem:kreska pseudotaktowa	!	!	!	!	!	!	!
2BBn/	-na	.	.	.	.	.	.
*	*	*	*	*lig	*	*	*
4C/	no-	.	.	1e-X\	pa-	.	.
4D/	.	.	.	.	.	.	.
*	*	*lig	*	*	*	*	*
!LO:TX:t=P:problem:♭ above	!	!	!LO:MO:null:mod=no-	!	!	!	!
4E-X\	.	1c\	.	.	.	2c/	-bis
4F\	.	.	.	.	.	.	.
=54-	=54-	=54-	=54-	=54-	=54-	=54-	=54-
!	!	!	!	!LO:TX:t=P:problem:kreska pseudotaktowa	!	!LO:TX:t=P:problem:kreska pseudotaktowa	!
4G\	.	.	.	1d\	.	1d\	pa-
4D\	.	.	.	.	.	.	.
4G\	.	1B-\	.	.	.	.	.
4F\	.	.	.	.	.	.	.
!LO:TX:t=P:problem:kreska pseudotaktowa	!	!	!	!	!	!	!
*	*	*Xlig	*	*Xlig	*	*	*
*	*	*	*	*lig	*	*	*
4Eny\	.	.	.	1c\	-cem	2g\	.
4C/	.	.	.	.	.	.	.
!	!	!	!	!	!	!LO:TX:t=P:problem:daszek nad nutą	!
4F\	.	1A\	.	.	.	2f\	-cem
!LO:TX:t=P:problem:kreska pseudotaktowa	!	!	!	!	!	!	!
4E-i\	.	.	.	.	.	.	.
=55-	=55-	=55-	=55-	=55-	=55-	=55-	=55-
!	!	!	!	!LO:TX:t=P:problem:kreska pseudotaktowa	!	!	!
4D/	.	.	.	1B-\	.	2f\	do-
4BB-y/	.	.	.	.	.	.	.
4E-X\	.	2G/	-bis	.	.	2e-X\	-na
4D/	.	.	.	.	.	.	.
!LO:TX:t=P:problem:kreska pseudotaktowa	!	!	!	!	!	!LO:TX:t=P:problem:kreska pseudotaktowa	!
*	*	*	*	*Xlig	*	*	*
2C/	.	0G/	pa-	2c\	pa-	4e-\	no-
.	.	.	.	.	.	4f\	.
!LO:MO:mod=!null:null	!	!	!	!	!	!	!
!LO:N:acc=#	!	!	!	!	!	!	!
2BBn/	-bis	.	.	2.d\	.	4g\	-bis
.	.	.	.	.	.	4f\	.
=56-	=56-	=56-	=56-	=56-	=56-	=56-	=56-
1C/	pa-	.	.	.	.	1e-i\	pa-
!	!	!	!	!	!LO:MO:mod=.	!	!
.	.	.	.	8c\L	-cem.	.	.
!	!	!	!	!LO:SIC:s=8BiJ	!	!	!
.	.	.	.	8B-\J	.	.	.
.	.	.	.	2c\	.	.	.
!	!	!	!	!LO:MO:mod=!null:null	!	!LO:MO:mod=!LO&colon;N&colon;vis=0	!
!	!	!	!	!LO:N:acc=#	!	!LO:SIC:s=1d;	!LO:MO:mod=-cem.
!LO:MO:mod=!LO&colon;N&colon;vis=0	!	!LO:MO:mod=!LO&colon;N&colon;vis=0	!	!LO:MO:mod=!LO&colon;N&colon;vis=0	!	!	!
!LO:SIC:s=1GG;	!	!LO:SIC:s=1G;	!	!LO:SIC:s=1Bn;	!LO:MO:null:mod=-cem.	!	!
1GG/;l	-cem.	1G/;;l	-cem.	1Bn\;l	.	1d\;l	-cem
*	*	*	*	*	*	*	*Xij
!	!	!	!	!LO:TX:t=P:problem:\nAd Maiorem Dei Gloriam\net\nBeata Maria Virgine Honorem	!	!	!
!LO:TX:b:i:t=MM P(?)R\nmp(?) Scripsit\nAD 1661\n28 Jan(uari?):mod=	!	!	!	!LO:TX:b:i:t=A M D G.\net B M V H.:mod=	!	!LO:TX:t=P:problem:dokładnie tą adnotację ma pewnie rozczytaną Jacek. \nJa tu wszystkiego nie widzę, ale widzę:\nAd Maiorem Dei Gloriam\nEt\nBeatae Virgine Maria H(?) \nM(agister?) M ... Regi (że kapeli królewskiej Magister)\ni podpis jakiś. 	!
!LO:TX:b:i:t=A M D G. Et \nB V M H.:mod=	!	!LO:TX:b:i:t=Sit Laus Deo\nVirginis, Mater\nLDV.NCA.:mod=	!	!	!	!LO:TX:b:i:t=AMDG.\nEt\nBVMH. MM PR.\n...:mod=	!
==	==	==	==	==	==	==	==
*-	*-	*-	*-	*-	*-	*-	*-
!!!system-decoration: [(*)]
!!!RDF**kern: > = above
!!!RDF**kern: < = below
!!!RDF**kern: l = terminal long
!!!RDF**kern: i = editorial accidental
!!!filter-modern: shed -k -e "s/,//D" | shed -e "s/TX(.*):t=P:/tx$1:t=P:/LG" | sic -sq | modori -m | autostem -r | tie -s | humtr -p | shed -e "s/-//B" | shed -e "s/^custos:/Xcustos:/I" | shed -k -e "s/[<>]//g"
!!!ENC: Mateusz Solarz
!!!END: 2022-05-04
!!!ENC: Andrzej Borzym
!!!END: 2022-05-17
!!!ENC-modern: Andrzej Kubiczek
!!!END-modern: 2022-06-27
